!!!PDT:	1923
!!!LANG: Non-Tone
!!!LING_GROUP: Siouan
!!!REG: Dakotas
!!!COM: Anon.
!!!OTL: Black Mouth Society Song
!!!ODT: <1918//
!!!MPN: Malitikikanaka [Crow's Heart]
!!!MLC: Fort Berthold Reservation, North Dakota, United States of America
!! Song was recorded during either the summer of 1912, 1915, or 1918.
!!!AGN: monody
!!!SOCIAL_FUNCTION: Mandan Black Mouth Society
!!!AMT: irregular
!!!RWG: Transcribed pitches, durations, and meters are only approximate.
!! Drum not recorded.
**kern
*ICvox
*Ifemale
*clefG2
*k[b-]
*M2/4
*MM63
=1-
16d
16d
8d
16f
8.d
=2
8d
[8c
4c]
=3
16c
16A
8c
16d
8.c
=4
8A
[8A
4A]
=5
(12c
12A
12A)
(12c
12A
12A)
=6
4E'
4r
*M3/4
16A
16A
8A
16A
8.A
4A
*M2/4
=7
16c
16A
8G
16A
8.G
=8
8F
[8F
4F]
*M3/4
=9
16A
8.F
(12G
12F
12F)
(12F
12D
12D)
*M2/4
=10
2C
=11
(12F
12D
12D)
(12F
12D
12D)
*M3/4
=12
8C
8C
[4C
8C]
8C
=13
2.AA
=14
(12AA
12AA
12AA)
2AA
=15
2.AA
==
*-
!!!CNT: Mandan
!!!TXO: Mandan
!!!OCY: United States
!!!OCL: Frances Densmore
!!!YOR: Frances Densmore, "Mandan and Hidatsa Music",
!!!YOR: Bulletin 80, page 52, No. 10
!!!PPR: Smithsonian Institution, Bureau of American Ethnology
!!!PPR: Government Printing Office
!!!PDT: 1923
!!!PPP: Washington, DC, United States of America
!!!YEC: Electronic Copyright 2000 David Huron
!!!YER: August 2000
!!!YEN: United States of America
!!!ENC: David Huron
!!!RDT: August 16, 2000
!!!EEV: Release 1.0
!!!AIN: tom, vox
